X:624
T:Reconciliation #2, The
C:Joe Buchanan's Scottish Tome - Page 184.3
I:184 3
Z:Carl Allison
R:Reel
L:1/8
M:4/4
K:A
e2 | "A"A2 (cA) eAfA | "A"eAfA e(cBc) | "A"A2 (cA) eAfA | "Bm"e(cBc) "D"A(FEF) |
"A"A2 (cA) eAfA | "A"eAfA e(cBc) | "A"ABAF Ec"D"d(f | ec)Bc A2 :|
(cB) | "A"A2 ce a2 af | "A"efed cdcB | "A"A2 ce "F#m"a2 ag | "B7"gbba "E7"gbeg |
"A"agae fae(c | "D"dB)cA "E7"BAFG | "A"ABAF "D"Ecd(f | "E7"ec)Bc "A"A2 :|

